!!!!SEGMENT: pl-kk--kk-i-356--001-002_palestrina-giovanni-pierluigi-da--canite-tuba-in-sion-rorate-caeli.krn
!!!cenid: 17xx:1943
!!!COM: Palestrina, Giovanni Pierluigi da
!!!COM-rismid: pe1904
!!!CDT: ~1525-1594/02/02
!!!CNT: Italian
!!!OPR: Canite tuba in Sion
!!!OTL: Rorate caeli
!!!OMV: 002
!!!PDT:
!!!AGN: Sacred
!!!SMS-siglum: PL-Kk
!!!SMS-shelfmark: Kk.I.356
!!!SMS-shelfwork: 001-002 M
!!!SMS-variant:
!!!SMS-altvar:
!!!NIFC-rismid: 1001141752
!!!URL-scan: http://repozytorium.nifc.pl/skany/pl-kk-nut--i-356
!!!ONB-nifc: UWAGA: tylko partia basu. Osobne części motetu: 1. Canite tuba in Sion, 2. Rorate caeli
!!!AIN: 1 empty
!!!key:
**kern	**text
*Iempty	*
*I"Baſso.	*
*I'B	*
*clefF3	*
*k[]	*
*c:	*
*M2/1	*
=1-	=1-
!LO:TX:a:t=Pars 2nda	!
!LO:TX:t=P:problem=metrum C|	!
00r	.
=2-	=2-
.	.
=3-	=3-
00r	.
=4-	=4-
.	.
=5-	=5-
00r	.
=6-	=6-
.	.
=7-	=7-
00r	.
=8-	=8-
.	.
=9-	=9-
0r	.
=10-	=10-
1C	Ro-
*2\right	*
2F\	-ra-
2G\	-te
=11-	=11-
2A\	Coe-
!LO:TX:a:t=P:problem=kreska pseudotaktowa	!
2B\	-li
1.c	de-
=12-	=12-
.	.
2c\	-su-
2B\	-per
2c\	et
=13-	=13-
1F	nu-
2c\	-bes
!LO:TX:a:t=P:problem=kreska pseudotaktowa	!
2d\	plu-
=14-	=14-
4c\	.
4B\	.
4A\	.
4G\	.
2F\	-ant
!LO:TX:a:t=P:problem=kreska pseudotaktowa	!
2G\	.
!LO:LB:g=original	!
=15-	=15-
1D	ju-
2G\	-stum
!LO:TX:a:t=vi	!
!LO:TX:a:t=P:problem=kreska pseudotaktowa	!
2G\	et
=16-	=16-
1C	nub-
2G\	.
!LO:TX:a:t=re=	!
!LO:TX:a:t=P:problem=kreska pseudotaktowa	!
2G\	-es
=17-	=17-
!LO:TX:a:t==tro	!
2E/	plu-
4D/	.
4E/	.
4F/	.
4G/	.
2A\	-ant
=18-	=18-
1G	ju-
!LO:TX:a:t=P:problem=kreska pseudotaktowa	!
1C	-stum
=19-	=19-
2r	.
2G\	et
2c\	nu-
2B\	-bes
=20-	=20-
2c\	plu-
2C/	-ant
1G	ju-
=21-	=21-
0C	-stu(m)
=22-	=22-
0r	.
=23-	=23-
1r	.
1c	a-
=24-	=24-
2A\	-pe-
2A\	-ri-
2G\	-a-
2A\	-tur
=25-	=25-
1F	ter-
1C	-ra
!LO:LB:g=original	!
=26-	=26-
0r	.
=27-	=27-
1r	.
*	*ij
1C	a-
=28-	=28-
2E/	-pe-
2F/	-ri-
2G/	-a-
2E/	-tur
=29-	=29-
1F	ter-
!LO:TX:a:t=P:problem=kreska pseudotaktowa	!
0E	-ra
*	*Xij
=30-	=30-
.	.
00r	.
=31-	=31-
.	.
=32-	=32-
.	.
2r	.
2A\	et
=33-	=33-
2.A\	ger-
!LO:TX:a:t=P:problem=kreska pseudotaktowa	!
4B\	-mi-
2c\	-net
2.d\	Sal-
=34-	=34-
.	.
4c\	.
4B-X\	.
4A\	.
2G\	.
2F/	-va-
=35-	=35-
1c	-to-
!LO:TX:a:t=P:problem=kreska pseudotaktowa	!
0F	-rem
=36-	=36-
.	.
00r	.
=37-	=37-
.	.
=38-	=38-
.	.
1r	.
=39-	=39-
0A	O-
=40-	=40-
1D	-sten-
!LO:TX:a:t=P:problem=kreska pseudotaktowa	!
1G	-de
=41-	=41-
!LO:LB:g=original	!
1C	no-
1C	-bis
=42-	=42-
1.D	Do-
2D/	-mi-
=43-	=43-
!LO:TX:a:t=P:problem=kreska pseudotaktowa	!
0A	-ne
=44-	=44-
00r	.
=45-	=45-
.	.
=46-	=46-
0r	.
=47-	=47-
1r	.
1D	mi-
=48-	=48-
2D/	-se-
!LO:TX:a:t=P:problem=kreska pseudotaktowa	!
2D/	-ri-
1.G	-cor-
=49-	=49-
.	.
2C/	-di-
!LO:TX:a:t=P:problem=kreska pseudotaktowa	!
1C	-am
=50-	=50-
0F	tu-
=51-	=51-
2G\	-am
2G\	et
1.c	Sa-
=52-	=52-
.	.
2B\	-lu-
2A\	-ta-
!LO:TX:a:t=P:problem=kreska pseudotaktowa	!
2G\	-re
=53-	=53-
1A	tu-
2.G\	-um
4F/	.
!LO:LB:g=original	!
=54-	=54-
1D	no-
!LO:TX:a:t=P:problem=kreska pseudotaktowa	!
0C	-bis
=55-	=55-
.	.
00r	.
=56-	=56-
.	.
=57-	=57-
.	.
0r	.
=58-	=58-
.	.
1r	.
=59-	=59-
1G	ve-
2A\	-ni
1c	Do-
=60-	=60-
.	.
2B\	mi-
!LO:TX:a:t=P:problem=kreska pseudotaktowa	!
1A	-ne
=61-	=61-
1r	.
*	*ij
1F	ve-
=62-	=62-
2G\	-ni
1B	Do-
2A\	-mi-
=63-	=63-
!LO:TX:a:t=P:problem=kreska pseudotaktowa	!
1G	-ne
00r	.
=64-	=64-
.	.
=65-	=65-
.	.
0r	.
=66-	=66-
.	.
1G	ve-
=67-	=67-
2A\	-ni
1c	Do-
2B\	-mi-
=68-	=68-
2A\	-ne
*	*Xij
!LO:TX:a:t=P:problem=kreska pseudotaktowa	!
2E/	et
2F\	no-
2A\	-li
=69-	=69-
2G\	-tar
2.F/	.
4E/	.
!LO:PB:g=original	!
!LO:N:vis=1	!
2D	.
=70-	=70-
!LO:TX:a:t=P:problem=kreska pseudotaktowa	!
0C	-re
=71-	=71-
00r	.
=72-	=72-
.	.
=73-	=73-
0r	.
=74-	=74-
2r	.
2G\	al-
2A\	-le-
2B\	-lu-
=75-	=75-
2.c\	.
4B\	.
4A\	.
4G\	.
1F	.
=76-	=76-
.	.
2E/	.
1D	.
=77-	=77-
!LO:TX:a:t=P:problem=kreska pseudotaktowa	!
1C	-ia
0r	.
=78-	=78-
.	.
1r	.
=79-	=79-
2r	.
*	*ij
2C/	al-
2F\	-le-
2G\	-lu-
=80-	=80-
!LO:TX:a:t=P:problem=kreska pseudotaktowa	!
1C	-ia
1r	.
=81-	=81-
2r	.
2c\	al-
2B\	-le-
!LO:TX:a:t=P:problem=kreska pseudotaktowa	!
2G\	-lu-
=82-	=82-
2.A\	-ia
4G\	al-
2F/	-le-
2E/	.
!LO:LB:g=original	!
=83-	=83-
1D	-lu-
!LO:TX:a:t=P:problem=kreska pseudotaktowa	!
1C	-ia
*	*Xij
=84-	=84-
1r	.
2r	.
2C/	al-
=85-	=85-
2F\	-le-
2G\	-lu-
0C	-ia
=86-	=86-
.	.
*	*ij
1D	al
=87-	=87-
0G	-le-
=88-	=88-
*lig	*
0C	-lu-
=89-	=89-
0G	.
*Xlig	*
=90-	=90-
00Cl;/	-ia
*	*Xij
=-	=-
*-	*-
!!!RDF**kern: l = terminal long
!!!ENC: Marta Lawrence
!!!END: 2021-02-22
!!!ENC: Marcin Jachim
!!!END: 2021-02-05
